src/assets/Vector (52).svg

<svg width="70" height="78" viewBox="0 0 70 78" fill="none" xmlns="http://www.w3.org/2000/svg">
<path fill-rule="evenodd" clip-rule="evenodd" d="M62.9065 0.266646C62.7331 0.413225 60.8278 4.03017 58.6725 8.30412L54.7536 16.075L44.8138 16.1141L34.8741 16.1533L34.7716 15.2761C34.4933 12.8935 33.334 9.80664 31.9461 7.75239C31.5851 7.21819 30.7068 6.17324 29.9944 5.43044C24.5788 -0.216365 16.0624 -1.44416 9.2968 2.44644C7.60692 3.41825 7.0457 3.94301 7.0457 4.55112C7.0457 5.10711 7.42955 5.57062 8.00578 5.71034C8.28973 5.77921 8.62234 5.64696 9.33197 5.18269C10.7512 4.25415 12.1946 3.56635 13.7027 3.1001C14.9597 2.71141 15.2427 2.682 17.7082 2.68337C20.8463 2.68505 21.8727 2.90644 24.3027 4.10559C28.5956 6.22398 31.7743 10.5613 32.3772 15.1226L32.5131 16.1511H31.3473H30.1816L30.0916 15.3881C29.9591 14.2625 29.205 12.1933 28.4813 10.9691C26.9011 8.29574 23.9901 6.0777 20.9675 5.24409C19.6468 4.87978 16.6815 4.79277 15.3379 5.07892C12.7704 5.62562 10.8675 6.6884 8.90931 8.6695C7.74048 9.85189 7.32753 10.3975 6.75615 11.5142C5.62188 13.7312 5.35067 14.9013 5.36386 17.5225C5.37401 19.5609 5.4107 19.8398 5.83654 21.1286C6.98476 24.6037 9.1167 27.0754 12.3264 28.6529C13.7869 29.3707 15.3581 29.8574 16.2301 29.8621L16.647 29.8644V31.0071V32.1499H16.0694C14.4397 32.1499 11.0288 30.8418 9.15597 29.4985C7.82629 28.5449 5.93736 26.4729 5.06778 25.0143C4.21458 23.5829 3.39549 21.3038 3.14216 19.6556C2.89915 18.0757 3.0459 15.161 3.44491 13.637C3.8089 12.2467 4.63769 10.4288 5.55684 9.00426C5.90325 8.46746 6.18659 7.89654 6.18659 7.73548C6.18659 7.57443 5.98026 7.23525 5.728 6.98171C5.35673 6.60856 5.19058 6.54045 4.8563 6.6244C4.26718 6.7722 3.97915 7.07801 3.14262 8.4443C1.76018 10.7021 1.01477 12.9741 0.716269 15.8408C-0.212733 24.7568 6.41899 33.1959 15.34 34.4502L16.647 34.634V52.1013C16.647 71.5884 16.5792 70.3064 17.7332 72.6749C18.5927 74.4392 20.1585 76.0254 21.91 76.9067C24.2468 78.0821 23.1985 78.0287 43.0253 77.9801L60.6866 77.9369L61.5621 77.6009C64.157 76.6052 66.2955 74.7767 67.3171 72.6801C68.5102 70.2312 68.4091 72.8028 68.4579 43.6897C68.4819 29.3791 68.4456 17.4486 68.3774 17.1775C68.1688 16.3491 67.5568 16.1516 65.1967 16.1514C64.0918 16.1513 63.188 16.1094 63.188 16.0585C63.188 16.0076 64.5865 13.2013 66.2958 9.82233C68.0051 6.44339 69.4036 3.58022 69.4036 3.45985C69.4036 2.92214 68.6483 2.36477 66.3564 1.21134C65.0327 0.545025 63.7858 0 63.5857 0C63.3854 0 63.0798 0.120067 62.9065 0.266646ZM60.7708 9.35425C58.9319 12.9878 57.4272 16.0059 57.4272 16.0612C57.4272 16.1166 58.125 16.1423 58.9778 16.1184L60.5283 16.075L63.5217 10.1326C65.1682 6.86423 66.517 4.13957 66.5193 4.07755C66.5214 4.01569 65.9812 3.69114 65.3187 3.35639L64.1143 2.74767L60.7708 9.35425ZM14.7441 7.6756C13.6803 8.02194 12.4846 8.6116 11.8331 9.11107L11.4914 9.37284L14.0692 11.9604L16.647 14.5479V10.9308V7.31372L16.2301 7.32058C16.0008 7.32424 15.3321 7.48407 14.7441 7.6756ZM18.9209 10.9308V14.5479L21.4898 11.9694L24.0587 9.39082L23.5743 9.0294C22.8644 8.49961 21.377 7.81456 20.3561 7.54731C18.7831 7.1356 18.9209 6.81045 18.9209 10.9308ZM9.24207 11.8481C8.49423 13.0192 7.70258 15.1312 7.70258 15.9546C7.70258 16.1095 8.46407 16.1511 11.3014 16.1511H14.9001L12.4022 13.637C11.0284 12.2543 9.85939 11.123 9.80466 11.123C9.74978 11.123 9.49661 11.4493 9.24207 11.8481ZM23.1657 13.637L20.6678 16.1511H24.2786H27.8894L27.7909 15.6559C27.6341 14.8677 27.2427 13.6885 26.9184 13.0276C26.5341 12.2441 25.8413 11.1236 25.7413 11.1233C25.6985 11.1231 24.5395 12.2543 23.1657 13.637ZM7.70258 18.8778C7.70258 19.7265 8.82002 22.4879 9.49752 23.313L9.80982 23.6934L12.3561 21.1412L14.9025 18.589H11.3025C7.8704 18.589 7.70258 18.6025 7.70258 18.8778ZM18.9209 43.6258C18.9209 60.9497 18.9716 68.9411 19.0853 69.5666C19.4752 71.7124 21.1771 73.9814 23.0661 74.8741C24.9314 75.7555 24.5232 75.7389 43.0715 75.6932L60.0802 75.6513L60.9775 75.3079C63.4431 74.3641 65.2076 72.433 65.8422 69.9843C66.0384 69.2277 66.0684 65.7505 66.0684 43.8503V18.589H63.9781H61.888L60.1907 21.9134L58.4934 25.2378L59.9689 25.4134C61.6669 25.6154 63.1829 26.0858 63.5891 26.5366C63.8453 26.8208 63.8743 27.2075 63.9166 30.9086C63.9421 33.1417 63.9219 35.1918 63.8717 35.4645C63.6786 36.5138 62.6043 36.9099 61.8926 36.1945L61.5204 35.8206V31.9409V28.0612L60.755 27.8962C58.6961 27.4524 55.8421 27.8325 52.7116 28.9675L51.8617 29.2756L52.255 30.2176C52.5741 30.9815 52.6487 31.4057 52.6499 32.4632C52.6512 33.6602 52.6056 33.8593 52.0926 34.9011C51.596 35.9092 51.1819 36.3864 48.369 39.1917C45.6737 41.8797 45.0594 42.4159 44.2284 42.8057C43.0657 43.351 41.847 43.5234 40.7795 43.2931C39.1427 42.9404 38.7112 42.618 35.239 39.1539L31.925 35.8475L29.3266 35.7603C26.938 35.6802 25.6512 35.4926 23.8075 34.9558L23.4638 34.8557L23.5043 52.0026L23.5447 69.1494L23.9995 69.7965C24.2497 70.1525 24.7272 70.5869 25.0607 70.7619C25.6652 71.0792 25.7211 71.0802 42.5953 71.0802H59.5235L60.1809 70.6212C60.5652 70.3527 60.98 69.8805 61.1793 69.4842L61.5204 68.8063V54.2317C61.5204 39.7176 61.5218 39.6555 61.8347 39.2556C62.388 38.5485 63.4751 38.7609 63.7785 39.6355C63.9872 40.2374 64.0091 67.3995 63.802 68.8387C63.5355 70.6917 62.4496 72.1781 60.7921 72.959L59.9286 73.3658H42.4947H25.0607L24.2269 72.9705C23.1636 72.4663 22.1656 71.4633 21.664 70.3946L21.2707 69.5566L21.231 50.6698C21.1955 33.7338 21.2165 31.6957 21.434 30.938C22.1523 28.4351 23.835 26.927 26.6066 26.3014C27.9091 26.0074 31.2101 25.971 33.2086 26.2287L34.5551 26.4022L36.5606 24.4062C39.0998 21.8793 39.6884 21.5602 41.8125 21.5602C43.9626 21.5602 44.5141 21.8659 47.2084 24.5506L49.3549 26.6898L50.4182 24.6582C51.0029 23.541 51.9328 21.7183 52.4846 20.6079L53.4878 18.589H36.2044H18.9209V43.6258ZM54.1014 22.5607C52.9955 24.7452 52.1223 26.5641 52.1608 26.6028C52.1993 26.6415 52.4279 26.5971 52.6687 26.5042C52.9096 26.4111 53.6865 26.1813 54.3952 25.9934L55.6838 25.6517L57.4727 22.1204L59.2616 18.589H57.6868H56.1119L54.1014 22.5607ZM14.0178 22.8313L11.4644 25.4012L11.8914 25.7388C12.5879 26.2895 14.3821 27.0929 15.494 27.3521C16.0644 27.485 16.5584 27.5663 16.5918 27.5327C16.6251 27.4991 16.6342 25.8493 16.6118 23.8665L16.5712 20.2614L14.0178 22.8313ZM40.6755 24.0228C40.0009 24.2295 39.5735 24.6012 36.7913 27.4025C33.4853 30.7313 33.2908 31.0068 33.2607 32.4038C33.2532 32.753 33.2977 33.0894 33.3594 33.1516C33.5183 33.3113 35.8023 32.8417 37.9467 32.2084C39.6529 31.7045 43.9006 30.0754 46.5487 28.9092L47.7224 28.3923L45.5634 26.2587C43.6843 24.4016 43.3121 24.1019 42.6928 23.9473C41.8093 23.7266 41.6199 23.7338 40.6755 24.0228ZM27.4381 28.5112C25.6482 28.8104 24.3109 29.7632 23.8545 31.0644C23.4457 32.2293 23.5105 32.414 24.4196 32.6795C25.7946 33.0813 27.4972 33.3596 29.2287 33.4652L30.8973 33.5671V32.5814C30.8973 31.3381 31.2157 30.2512 31.863 29.2843L32.3692 28.5284L31.6879 28.4345C30.7524 28.3056 28.415 28.3478 27.4381 28.5112ZM47.5733 31.03C42.4924 33.2422 38.1717 34.7795 35.7779 35.2269L34.8219 35.4054L37.2939 37.9076C38.7797 39.4115 40.0078 40.5237 40.3723 40.6952C41.1171 41.0458 42.3805 41.0711 43.1429 40.751C43.9074 40.43 49.632 34.7228 50.0126 33.9022C50.3979 33.0717 50.3926 31.7065 50.001 30.9352C49.8354 30.609 49.6479 30.3113 49.5841 30.2735C49.5204 30.2358 48.6155 30.5762 47.5733 31.03ZM55.1523 36.8545C54.0279 37.2244 53.061 38.072 52.6596 39.0397C52.5303 39.3513 52.4244 40.04 52.4244 40.5701C52.4244 41.3867 52.4998 41.6603 52.9171 42.3599C54.4068 44.8567 57.9113 44.7883 59.2922 42.2355C60.2855 40.3993 59.5628 38.1302 57.6731 37.1517C57.0199 36.8135 55.7367 36.6622 55.1523 36.8545ZM28.2228 37.9253C27.471 38.1176 26.7317 38.6469 26.2605 39.33C25.6735 40.1816 25.5596 41.7073 26.0166 42.6005C26.6966 43.9299 27.7645 44.5491 29.2334 44.4658C30.4745 44.3952 31.31 43.8872 31.9297 42.8264C32.6622 41.5723 32.3898 39.7266 31.3289 38.7577C30.5147 38.014 29.2259 37.6686 28.2228 37.9253ZM55.2916 39.3542C54.6275 39.8666 54.5258 40.7685 55.0614 41.3945C55.3514 41.7333 55.5524 41.8185 56.0628 41.8185C56.5733 41.8185 56.7743 41.7333 57.0643 41.3945C57.8476 40.4792 57.2579 39.1686 56.0628 39.1686C55.771 39.1686 55.424 39.2521 55.2916 39.3542ZM28.3201 40.5302C28.1534 40.6978 28.0169 40.9945 28.0169 41.1894C28.0169 41.6276 28.6048 42.2063 29.0499 42.2063C29.5134 42.2063 29.9877 41.6788 29.9877 41.1633C29.9877 40.3091 28.937 39.9102 28.3201 40.5302ZM32.9115 44.5605C32.047 44.8321 31.0745 45.426 30.4884 46.0406C29.8937 46.6641 25.8466 53.6708 25.5061 54.6664C24.7706 56.8168 25.6315 59.635 27.4222 60.9387C28.5093 61.7301 34.736 65.2745 35.5211 65.5488C37.2513 66.1531 39.5318 65.7321 40.8489 64.5651L41.1738 64.2771L41.497 65.2408C42.3544 67.7974 44.8226 69.5096 47.3236 69.2826C48.3505 69.1895 55.5562 67.09 56.6116 66.5765C57.6063 66.0926 58.5956 65.0373 59.1424 63.877C59.5769 62.9552 59.6247 62.7146 59.6181 61.481C59.6115 60.2195 59.5178 59.8005 58.4492 56.2529C57.8103 54.1318 57.1328 52.0847 56.9436 51.7039C56.4596 50.7298 55.052 49.4683 53.9836 49.0509C52.4902 48.4676 51.3082 48.5576 48.222 49.4901L45.6113 50.2789L44.9441 49.6329C44.2344 48.9454 37.5101 44.9777 36.3693 44.5732C35.5711 44.2901 33.793 44.2835 32.9115 44.5605ZM33.4745 46.8252C32.5152 47.1307 31.6796 48.2236 29.6239 51.8612C27.5291 55.5677 27.3485 56.0828 27.6942 57.3681C27.999 58.5017 28.5704 58.9699 32.3037 61.1453C34.2474 62.2779 36.1387 63.2861 36.5068 63.3856C37.7686 63.7272 39.32 63.1549 40.0468 62.0798L40.4074 61.5467L39.8979 59.8599C38.9997 56.8863 38.9698 55.7196 39.7484 54.0105C40.1985 53.0222 41.3375 51.8296 42.2253 51.4171C42.5771 51.2537 42.847 51.0594 42.8249 50.9855C42.771 50.806 36.2532 47.0301 35.6054 46.8031C34.992 46.5883 34.1922 46.5965 33.4745 46.8252ZM47.3957 52.1865C45.3387 52.8039 43.4517 53.415 43.2025 53.5445C42.2342 54.0476 41.5122 55.3119 41.5102 56.5069C41.5093 57.0512 43.6526 64.5209 44.0031 65.195C44.5307 66.2099 45.6793 66.8901 46.8654 66.8901C47.925 66.8901 55.0906 64.7875 55.927 64.2312C56.8217 63.6361 57.336 62.6228 57.3159 61.495C57.2952 60.3341 55.2258 53.3038 54.6452 52.422C54.1302 51.6399 52.9279 51.0402 51.902 51.0537C51.4137 51.0603 49.7795 51.4711 47.3957 52.1865Z" fill="white"/>
</svg>

<svg xmlns="http://www.w3.org/2000/svg" width="70" height="78" fill="none" viewBox="0 0 70 78"><path fill="#fff" fill-rule="evenodd" d="M62.907.267c-.174.146-2.08 3.763-4.234 8.037l-3.92 7.771-9.94.04-9.939.038-.102-.877c-.279-2.383-1.438-5.47-2.826-7.524-.36-.534-1.24-1.579-1.952-2.322A16.94 16.94 0 0 0 9.297 2.446c-1.69.972-2.251 1.497-2.251 2.105 0 .556.384 1.02.96 1.16.284.068.616-.064 1.326-.528 1.42-.929 2.863-1.617 4.37-2.083 1.258-.389 1.54-.418 4.006-.417 3.138.002 4.165.223 6.595 1.423 4.293 2.118 7.471 6.455 8.074 11.017l.136 1.028h-2.331l-.09-.763c-.133-1.126-.887-3.195-1.61-4.419-1.58-2.673-4.492-4.891-7.514-5.725-1.321-.364-4.286-.451-5.63-.165-2.568.547-4.47 1.61-6.429 3.59-1.169 1.183-1.581 1.729-2.153 2.845-1.134 2.217-1.405 3.387-1.392 6.009.01 2.038.047 2.317.473 3.606 1.148 3.475 3.28 5.946 6.49 7.524 1.46.718 3.031 1.204 3.903 1.21l.417.001v2.286h-.578c-1.63 0-5.04-1.308-6.913-2.651-1.33-.954-3.219-3.026-4.088-4.485-.853-1.431-1.673-3.71-1.926-5.358-.243-1.58-.096-4.495.303-6.019.364-1.39 1.193-3.208 2.112-4.633.346-.537.63-1.107.63-1.269 0-.16-.207-.5-.459-.753-.371-.373-.537-.442-.872-.358-.589.148-.877.454-1.713 1.82-1.383 2.258-2.128 4.53-2.427 7.397-.929 8.916 5.703 17.355 14.624 18.61l1.307.183v17.467c0 19.487-.068 18.205 1.086 20.574.86 1.764 2.425 3.35 4.177 4.232 2.337 1.175 1.288 1.122 21.115 1.073l17.662-.043.875-.336c2.595-.996 4.734-2.824 5.755-4.92 1.193-2.45 1.092.122 1.14-28.991.025-14.31-.011-26.241-.08-26.512-.208-.829-.82-1.026-3.18-1.027-1.105 0-2.009-.042-2.009-.093s1.398-2.857 3.108-6.236 3.108-6.242 3.108-6.362c0-.538-.756-1.095-3.048-2.249C65.033.545 63.786 0 63.586 0s-.506.12-.68.267M60.77 9.354c-1.84 3.634-3.344 6.652-3.344 6.707 0 .056.698.081 1.55.057l1.551-.043 2.994-5.942c1.646-3.269 2.995-5.993 2.997-6.055s-.538-.387-1.2-.722l-1.205-.608zM14.744 7.676c-1.064.346-2.26.936-2.91 1.435l-.343.262 2.578 2.587 2.578 2.588V7.314l-.417.007c-.23.003-.898.163-1.486.355m4.177 3.255v3.617l2.569-2.579 2.569-2.578-.485-.362c-.71-.53-2.197-1.214-3.218-1.482-1.573-.411-1.435-.737-1.435 3.384m-9.679.917c-.748 1.171-1.54 3.283-1.54 4.107 0 .155.762.196 3.6.196H14.9l-2.498-2.514c-1.374-1.383-2.543-2.514-2.597-2.514-.055 0-.308.326-.563.725m13.924 1.789-2.498 2.514h7.221l-.098-.495c-.157-.788-.548-1.968-.873-2.628-.384-.784-1.077-1.904-1.177-1.905-.043 0-1.201 1.131-2.575 2.514m-15.463 5.24c0 .85 1.117 3.61 1.795 4.436l.312.38 2.546-2.552 2.547-2.552h-3.6c-3.433 0-3.6.014-3.6.289M18.92 43.627c0 17.324.05 25.315.164 25.94.39 2.146 2.092 4.415 3.981 5.308 1.865.882 1.457.865 20.006.82l17.008-.043.898-.343c2.465-.944 4.23-2.875 4.864-5.324.196-.756.226-4.233.226-26.134V18.59h-4.18l-1.697 3.324-1.698 3.325 1.476.175c1.698.202 3.214.673 3.62 1.124.256.284.285.67.328 4.372.025 2.233.005 4.283-.045 4.556-.193 1.049-1.268 1.445-1.98.73l-.372-.374v-7.76l-.765-.165c-2.059-.444-4.913-.064-8.043 1.072l-.85.308.393.942c.32.764.394 1.188.395 2.245.001 1.197-.044 1.396-.557 2.438-.497 1.008-.911 1.485-3.724 4.29-2.695 2.689-3.31 3.225-4.14 3.615-1.163.545-2.382.717-3.45.487-1.636-.353-2.068-.675-5.54-4.14l-3.314-3.306-2.598-.087c-2.389-.08-3.676-.267-5.52-.804l-.343-.1.04 17.147.04 17.146.456.647c.25.356.727.79 1.06.966.605.317.661.318 17.535.318h16.929l.657-.459c.384-.268.799-.74.998-1.137l.341-.678V54.232c0-14.514.002-14.576.315-14.976.553-.708 1.64-.495 1.944.38.208.601.23 27.764.023 29.203-.267 1.853-1.352 3.34-3.01 4.12l-.863.407H25.06l-.834-.395c-1.063-.505-2.061-1.508-2.563-2.576l-.393-.838-.04-18.887c-.036-16.936-.015-18.974.203-19.732.718-2.503 2.401-4.011 5.173-4.637 1.302-.294 4.603-.33 6.602-.072l1.346.173 2.006-1.996c2.539-2.527 3.127-2.846 5.252-2.846 2.15 0 2.701.306 5.395 2.99l2.147 2.14 1.063-2.032c.585-1.117 1.515-2.94 2.067-4.05l1.003-2.019H18.92zM54.1 22.56c-1.105 2.184-1.979 4.003-1.94 4.042.038.038.267-.006.508-.099.24-.093 1.018-.323 1.726-.51l1.289-.342 1.789-3.532 1.789-3.531h-3.15zm-40.083.27-2.554 2.57.427.338c.697.55 2.491 1.354 3.603 1.613.57.133 1.064.214 1.098.18.033-.033.042-1.683.02-3.666l-.04-3.605zm26.658 1.192c-.675.207-1.102.578-3.885 3.38-3.306 3.328-3.5 3.604-3.53 5-.008.35.037.686.098.749.16.16 2.443-.31 4.588-.944 1.706-.503 5.954-2.133 8.602-3.299l1.173-.517-2.159-2.133c-1.879-1.857-2.25-2.157-2.87-2.312-.884-.22-1.073-.213-2.017.076M27.438 28.51c-1.79.3-3.127 1.252-3.583 2.553-.41 1.165-.344 1.35.565 1.615 1.375.402 3.077.68 4.809.786l1.668.102v-.986c0-1.243.319-2.33.966-3.297l.506-.756-.681-.093c-.936-.13-3.273-.087-4.25.076m20.135 2.519c-5.08 2.212-9.401 3.75-11.795 4.197l-.956.178 2.472 2.503c1.486 1.503 2.714 2.616 3.078 2.787.745.35 2.008.376 2.77.056.765-.321 6.49-6.028 6.87-6.849.386-.83.38-2.196-.011-2.967-.166-.326-.353-.624-.417-.662-.064-.037-.969.303-2.01.757m7.58 5.825c-1.125.37-2.092 1.217-2.493 2.185-.13.311-.236 1-.236 1.53 0 .817.076 1.09.493 1.79 1.49 2.497 4.994 2.428 6.375-.124.993-1.837.27-4.106-1.619-5.084-.653-.339-1.936-.49-2.52-.297m-26.93 1.07c-.752.193-1.491.722-1.962 1.405-.587.852-.701 2.377-.244 3.27.68 1.33 1.748 1.95 3.216 1.866 1.241-.07 2.077-.579 2.697-1.64.732-1.254.46-3.1-.601-4.068-.814-.744-2.103-1.09-3.106-.833m27.069 1.43c-.665.512-.766 1.414-.23 2.04.29.338.49.423 1 .423.511 0 .712-.085 1.002-.423.784-.916.194-2.226-1.001-2.226-.292 0-.639.083-.771.185M28.32 40.53c-.167.168-.303.465-.303.66 0 .438.588 1.016 1.033 1.016.463 0 .938-.527.938-1.043 0-.854-1.051-1.253-1.668-.633m4.591 4.03c-.864.272-1.837.866-2.423 1.48-.594.624-4.641 7.63-4.982 8.626-.735 2.15.125 4.969 1.916 6.273 1.087.791 7.314 4.336 8.1 4.61 1.73.604 4.01.183 5.327-.984l.325-.288.323.964c.857 2.556 3.326 4.269 5.827 4.042 1.026-.094 8.232-2.193 9.288-2.707.994-.483 1.984-1.539 2.53-2.699.435-.922.483-1.162.476-2.396-.007-1.262-.1-1.68-1.169-5.228-.639-2.121-1.316-4.168-1.505-4.55-.484-.973-1.892-2.235-2.96-2.652-1.494-.583-2.676-.493-5.762.44l-2.61.788-.668-.646c-.71-.688-7.434-4.655-8.575-5.06-.798-.283-2.576-.29-3.458-.013m.563 2.265c-.959.306-1.794 1.399-3.85 5.036-2.095 3.707-2.275 4.222-1.93 5.507.305 1.134.876 1.602 4.61 3.777 1.943 1.133 3.835 2.141 4.203 2.24 1.262.342 2.813-.23 3.54-1.305l.36-.533-.51-1.687c-.897-2.974-.927-4.14-.149-5.85.45-.988 1.59-2.18 2.477-2.593.352-.163.622-.358.6-.431-.054-.18-6.572-3.956-7.22-4.183-.613-.215-1.413-.206-2.13.022m13.922 5.361c-2.057.618-3.944 1.229-4.193 1.358-.969.504-1.69 1.768-1.693 2.963 0 .544 2.143 8.014 2.493 8.688.528 1.015 1.676 1.695 2.862 1.695 1.06 0 8.226-2.103 9.062-2.659.895-.595 1.409-1.608 1.389-2.736-.02-1.16-2.09-8.191-2.67-9.073-.516-.782-1.718-1.382-2.744-1.368-.488.006-2.123.417-4.506 1.133" clip-rule="evenodd"/></svg>
